icons-dark/apps/48/gimp.svg

<svg width="48" xmlns="http://www.w3.org/2000/svg" height="48" xmlns:xlink="http://www.w3.org/1999/xlink">
 <defs>
  <linearGradient id="a" y1="538.8" x1="423.57" y2="508.8" x2="393.57" gradientUnits="userSpaceOnUse">
   <stop stop-color="#3b74aa"/>
   <stop offset=".5" stop-color="#a2c0bb"/>
   <stop offset="1" stop-color="#175782"/>
  </linearGradient>
  <linearGradient id="b" y1="535.27" x1="409.05" y2="531.4" x2="406.81" gradientUnits="userSpaceOnUse">
   <stop stop-color="#486fa3"/>
   <stop offset="1" stop-color="#5a8cbd"/>
  </linearGradient>
  <linearGradient xlink:href="#b" id="c" x1="397.43" x2="425.55" gradientUnits="userSpaceOnUse"/>
  <radialGradient cx="118.76" cy="658.32" id="d" r="7.5" gradientUnits="userSpaceOnUse" gradientTransform="matrix(.88235 0 0 .29412 14.218 464.1)">
   <stop stop-color="#e0e0c3"/>
   <stop offset="1" stop-color="#e0e0c3" stop-opacity="0"/>
  </radialGradient>
  <linearGradient id="e" y1="507.04" x1="393.57" y2="517.62" x2="404.16" gradientUnits="userSpaceOnUse">
   <stop stop-color="#05243e"/>
   <stop offset="1" stop-color="#6794a5"/>
  </linearGradient>
  <linearGradient id="f" y1="543.8" x1="434.57" y2="503.8" x2="384.57" gradientUnits="userSpaceOnUse">
   <stop stop-color="#e3dfd6"/>
   <stop offset="1" stop-color="#f4f1e8"/>
  </linearGradient>
  <linearGradient id="g" y1="44" y2="4" x2="0" gradientUnits="userSpaceOnUse">
   <stop stop-color="#bd8d48"/>
   <stop offset="1" stop-color="#e8b971"/>
  </linearGradient>
  <linearGradient id="h" y1="503.8" x1="389.57" y2="532.8" x2="418.57" gradientUnits="userSpaceOnUse">
   <stop stop-color="#383e51"/>
   <stop offset="1" stop-color="#655c6f" stop-opacity="0"/>
  </linearGradient>
 </defs>
 <g transform="translate(-384.57-499.8)">
  <g stroke-opacity=".55" stroke-width="2.8">
   <rect width="48" x="384.57" y="503.8" fill="url(#f)" height="40"/>
   <path fill="url(#g)" d="m0 4v40h48v-40h-46zm2 2h44v36h-44z" transform="translate(384.57 499.8)"/>
   <rect width="48" x="384.57" y="542.8" fill="#aa7f41" height="1"/>
  </g>
  <path opacity=".2" fill="url(#h)" fill-rule="evenodd" d="m392.57 539.8l4 4h36v-22l-8.08-14z"/>
  <g stroke-opacity=".55" stroke-width="2.8">
   <rect width="32" x="392.57" y="507.8" fill="#ffffff" height="32"/>
   <rect width="30" x="393.57" y="508.8" fill="url(#a)" height="30"/>
  </g>
  <g fill-rule="evenodd">
   <path opacity=".2" fill="url(#b)" d="m423.57 523.8c0 0 0 10.588-30 15 30 0 30-14.12 30-14.12z"/>
   <path fill="url(#c)" d="m423.57 528.23c-5.313 3.767-11.478 7.344-19.253 10.564h1.563c10.805-3.595 15.629-6.458 17.69-8.436z"/>
  </g>
  <ellipse stroke-opacity=".55" fill="url(#d)" cx="119.01" cy="657.72" rx="6.618" ry="2.206" stroke-width="2.8" transform="rotate(-27.47267)"/>
  <path fill="url(#e)" fill-rule="evenodd" d="m393.57 531.74c0-22.941 30-22.941 30-22.941h-30z"/>
  <path stroke-opacity=".55" fill="#1a1a1a" stroke-width="2.8" d="m9 7v1h1v-1zm-2 2v1h1v-1zm3 0v1h1v-1zm0 1h-1v1h1zm2-1v1h1v-1zm2 0v1h1v-1zm2 0v1h1v-1zm2 0v1h1v-1zm2 0v1h1v-1zm2 0v1h1v-1zm2 0v1h1v-1zm2 0v1h1v-1zm2 0v1h1v-1zm2 0v1h1v-1zm2 0v1h1v-1zm2 0v1h1v-1zm2 0v1h1v-1zm2 0v1h1v-1zm0 2v1h1v-1zm-29 1v1h1v-1zm29 1v1h1v-1zm-29 1v1h1v-1zm29 1v1h1v-1zm-29 1v1h1v-1zm29 1v1h1v-1zm-29 1v1h1v-1zm29 1v1h1v-1zm-29 1v1h1v-1zm29 1v1h1v-1zm-29 1v1h1v-1zm29 1v1h1v-1zm-29 1v1h1v-1zm29 1v1h1v-1zm-29 1v1h1v-1zm29 1v1h1v-1zm-29 1v1h1v-1zm29 1v1h1v-1zm-29 1v1h1v-1zm29 1v1h1v-1zm-29 1v1h1v-1zm29 1v1h1v-1zm-29 1v1h1v-1zm29 1v1h1v-1zm-29 1v1h1v-1zm29 1v1h1v-1zm0 1h-1v1h1zm-29 0v1h1v-1zm2 0v1h1v-1zm2 0v1h1v-1zm2 0v1h1v-1zm2 0v1h1v-1zm2 0v1h1v-1zm2 0v1h1v-1zm2 0v1h1v-1zm2 0v1h1v-1zm2 0v1h1v-1zm2 0v1h1v-1zm2 0v1h1v-1zm2 0v1h1v-1zm2 0v1h1v-1zm5 0v1h1v-1zm-2 2v1h1v-1z" transform="translate(384.57 499.8)"/>
 </g>
</svg>

<?xml version="1.0" encoding="UTF-8" standalone="no"?>

<!-- Created with Inkscape (http://www.inkscape.org/) -->
<svg width="48" version="1.1" xmlns="http://www.w3.org/2000/svg" height="48" xmlns:xlink="http://www.w3.org/1999/xlink" xmlns:inkscape="http://www.inkscape.org/namespaces/inkscape">
 <defs id="defs5455">
  <linearGradient inkscape:collect="always" id="linearGradient4346">
   <stop style="stop-color:#05243e" id="stop4348"/>
   <stop offset="1" style="stop-color:#6794a5" id="stop4350"/>
  </linearGradient>
  <linearGradient inkscape:collect="always" id="linearGradient4336">
   <stop style="stop-color:#e0e0c3" id="stop4338"/>
   <stop offset="1" style="stop-color:#e0e0c3;stop-opacity:0" id="stop4340"/>
  </linearGradient>
  <linearGradient inkscape:collect="always" id="linearGradient4308">
   <stop style="stop-color:#486fa3" id="stop4310"/>
   <stop offset="1" style="stop-color:#5a8cbd" id="stop4312"/>
  </linearGradient>
  <linearGradient inkscape:collect="always" id="linearGradient4296">
   <stop style="stop-color:#3b74aa" id="stop4298"/>
   <stop offset="0.5" style="stop-color:#a2c0bb" id="stop4304"/>
   <stop offset="1" style="stop-color:#175782" id="stop4300"/>
  </linearGradient>
  <linearGradient inkscape:collect="always" xlink:href="#linearGradient4296" id="linearGradient4302" y1="540.79797" x1="425.57144" y2="506.798" x2="391.57147" gradientUnits="userSpaceOnUse" gradientTransform="matrix(0.88235298 0 0 0.88235298 48.06721 61.62327)"/>
  <linearGradient inkscape:collect="always" xlink:href="#linearGradient4308" id="linearGradient4314" y1="536.79797" x1="409.10736" y2="532.40564" x2="406.57144" gradientUnits="userSpaceOnUse" gradientTransform="matrix(0.88235298 0 0 0.88235298 48.06721 61.62327)"/>
  <linearGradient inkscape:collect="always" xlink:href="#linearGradient4308" id="linearGradient4329" x1="394.3421" x2="426.20941" gradientUnits="userSpaceOnUse" gradientTransform="matrix(0.88235298 0 0 0.88235298 49.4807 65.05603)"/>
  <radialGradient cx="118.76228" cy="658.32465" inkscape:collect="always" xlink:href="#linearGradient4336" id="radialGradient4342" r="7.5" gradientUnits="userSpaceOnUse" gradientTransform="matrix(0.88235298 0 0 0.29411765 14.21834 464.09852)"/>
  <linearGradient inkscape:collect="always" xlink:href="#linearGradient4346" id="linearGradient4352" y1="504.798" x1="391.57147" y2="516.79797" x2="403.57144" gradientUnits="userSpaceOnUse" gradientTransform="matrix(0.88235298 0 0 0.88235298 48.06721 61.62327)"/>
  <linearGradient inkscape:collect="always" xlink:href="#linearGradient4273" id="linearGradient4586" y1="543.79797" x1="434.57144" y2="503.798" x2="384.57144" gradientUnits="userSpaceOnUse"/>
  <linearGradient inkscape:collect="always" id="linearGradient4273">
   <stop style="stop-color:#e3dfd6" id="stop4275"/>
   <stop offset="1" style="stop-color:#f4f1e8" id="stop4277"/>
  </linearGradient>
  <linearGradient inkscape:collect="always" id="linearGradient4152">
   <stop style="stop-color:#bd8d48" id="stop4154"/>
   <stop offset="1" style="stop-color:#e8b971" id="stop4156"/>
  </linearGradient>
  <linearGradient inkscape:collect="always" xlink:href="#linearGradient4152" id="linearGradient4797" y1="43.999973" y2="4" x2="0" gradientUnits="userSpaceOnUse"/>
  <linearGradient inkscape:collect="always" id="linearGradient4410">
   <stop style="stop-color:#383e51" id="stop4412"/>
   <stop offset="1" style="stop-color:#655c6f;stop-opacity:0" id="stop4414"/>
  </linearGradient>
  <linearGradient inkscape:collect="always" xlink:href="#linearGradient4410" id="linearGradient4918" y1="503.798" x1="389.57144" y2="532.79797" x2="418.57144" gradientUnits="userSpaceOnUse"/>
 </defs>
 <metadata id="metadata5458"/>
 <g inkscape:label="Capa 1" inkscape:groupmode="layer" id="layer1" transform="matrix(1 0 0 1 -384.57143 -499.798)">
  <rect width="48.00001" x="384.57144" y="503.798" height="39.999996" style="stroke-opacity:0.550265;fill:url(#linearGradient4586);stroke-width:2.8" id="rect4567"/>
  <path style="stroke-opacity:0.550265;fill:url(#linearGradient4797);stroke-width:2.8" id="rect4778" d="M 0 4 L 0 6 L 0 44 L 2 44 L 48 44 L 48 42 L 48 6 L 48 4 L 46 4 L 2 4 L 0 4 z M 2 6 L 46 6 L 46 42 L 2 42 L 2 6 z " transform="matrix(1 0 0 1 384.57143 499.798)"/>
  <rect width="47.999969" x="384.57147" y="542.79797" height="1" style="stroke-opacity:0.550265;fill:#aa7f41;stroke-width:2.8" id="rect4799"/>
  <path inkscape:connector-curvature="0" style="fill:url(#linearGradient4918);opacity:0.2;fill-rule:evenodd" id="path4848" d="m 392.57143,539.798 4,4 36.00001,0 0,-20 0,-2 -8.0829,-14 z"/>
  <rect width="32" x="392.57144" y="507.798" height="32" style="stroke-opacity:0.550265;fill:#ffffff;stroke-width:2.8" id="rect4844"/>
  <rect width="30" x="393.57144" y="508.798" height="30" style="stroke-opacity:0.550265;fill:url(#linearGradient4302);stroke-width:2.8" id="rect4294"/>
  <path inkscape:connector-curvature="0" style="fill:url(#linearGradient4314);opacity:0.2;fill-rule:evenodd" id="path4306" d="m 423.57143,523.798 c 0,0 0,10.58824 -30,15 30,0 30,-14.11764 30,-14.11764 l 0,-0.88236 z"/>
  <path inkscape:connector-curvature="0" style="fill:url(#linearGradient4329);fill-rule:evenodd" id="path4321" d="m 423.57143,528.23389 c -5.31337,3.7668 -11.47782,7.34444 -19.25321,10.56411 l 1.56307,0 c 10.80513,-3.59502 15.62862,-6.45842 17.69014,-8.43577 l 0,-2.12834 z"/>
  <ellipse cx="119.00859" cy="657.72345" rx="6.617647" ry="2.205883" style="stroke-opacity:0.550265;fill:url(#radialGradient4342);stroke-width:2.8" id="path4334" transform="matrix(0.88723102 -0.4613254 0.4613254 0.88723102 0 0)"/>
  <path inkscape:connector-curvature="0" style="fill:url(#linearGradient4352);fill-rule:evenodd" id="path4344" d="m 393.57143,531.73918 c 0,-22.94118 30,-22.94118 30,-22.94118 l -30,0 z"/>
  <path style="stroke-opacity:0.550265;fill:#1a1a1a;stroke-width:2.8" id="rect4804" d="M 9 7 L 9 8 L 10 8 L 10 7 L 9 7 z M 7 9 L 7 10 L 8 10 L 8 9 L 7 9 z M 10 9 L 10 10 L 11 10 L 11 9 L 10 9 z M 10 10 L 9 10 L 9 11 L 10 11 L 10 10 z M 12 9 L 12 10 L 13 10 L 13 9 L 12 9 z M 14 9 L 14 10 L 15 10 L 15 9 L 14 9 z M 16 9 L 16 10 L 17 10 L 17 9 L 16 9 z M 18 9 L 18 10 L 19 10 L 19 9 L 18 9 z M 20 9 L 20 10 L 21 10 L 21 9 L 20 9 z M 22 9 L 22 10 L 23 10 L 23 9 L 22 9 z M 24 9 L 24 10 L 25 10 L 25 9 L 24 9 z M 26 9 L 26 10 L 27 10 L 27 9 L 26 9 z M 28 9 L 28 10 L 29 10 L 29 9 L 28 9 z M 30 9 L 30 10 L 31 10 L 31 9 L 30 9 z M 32 9 L 32 10 L 33 10 L 33 9 L 32 9 z M 34 9 L 34 10 L 35 10 L 35 9 L 34 9 z M 36 9 L 36 10 L 37 10 L 37 9 L 36 9 z M 38 9 L 38 10 L 39 10 L 39 9 L 38 9 z M 38 11 L 38 12 L 39 12 L 39 11 L 38 11 z M 9 12 L 9 13 L 10 13 L 10 12 L 9 12 z M 38 13 L 38 14 L 39 14 L 39 13 L 38 13 z M 9 14 L 9 15 L 10 15 L 10 14 L 9 14 z M 38 15 L 38 16 L 39 16 L 39 15 L 38 15 z M 9 16 L 9 17 L 10 17 L 10 16 L 9 16 z M 38 17 L 38 18 L 39 18 L 39 17 L 38 17 z M 9 18 L 9 19 L 10 19 L 10 18 L 9 18 z M 38 19 L 38 20 L 39 20 L 39 19 L 38 19 z M 9 20 L 9 21 L 10 21 L 10 20 L 9 20 z M 38 21 L 38 22 L 39 22 L 39 21 L 38 21 z M 9 22 L 9 23 L 10 23 L 10 22 L 9 22 z M 38 23 L 38 24 L 39 24 L 39 23 L 38 23 z M 9 24 L 9 25 L 10 25 L 10 24 L 9 24 z M 38 25 L 38 26 L 39 26 L 39 25 L 38 25 z M 9 26 L 9 27 L 10 27 L 10 26 L 9 26 z M 38 27 L 38 28 L 39 28 L 39 27 L 38 27 z M 9 28 L 9 29 L 10 29 L 10 28 L 9 28 z M 38 29 L 38 30 L 39 30 L 39 29 L 38 29 z M 9 30 L 9 31 L 10 31 L 10 30 L 9 30 z M 38 31 L 38 32 L 39 32 L 39 31 L 38 31 z M 9 32 L 9 33 L 10 33 L 10 32 L 9 32 z M 38 33 L 38 34 L 39 34 L 39 33 L 38 33 z M 9 34 L 9 35 L 10 35 L 10 34 L 9 34 z M 38 35 L 38 36 L 39 36 L 39 35 L 38 35 z M 9 36 L 9 37 L 10 37 L 10 36 L 9 36 z M 38 37 L 38 38 L 39 38 L 39 37 L 38 37 z M 38 38 L 37 38 L 37 39 L 38 39 L 38 38 z M 9 38 L 9 39 L 10 39 L 10 38 L 9 38 z M 11 38 L 11 39 L 12 39 L 12 38 L 11 38 z M 13 38 L 13 39 L 14 39 L 14 38 L 13 38 z M 15 38 L 15 39 L 16 39 L 16 38 L 15 38 z M 17 38 L 17 39 L 18 39 L 18 38 L 17 38 z M 19 38 L 19 39 L 20 39 L 20 38 L 19 38 z M 21 38 L 21 39 L 22 39 L 22 38 L 21 38 z M 23 38 L 23 39 L 24 39 L 24 38 L 23 38 z M 25 38 L 25 39 L 26 39 L 26 38 L 25 38 z M 27 38 L 27 39 L 28 39 L 28 38 L 27 38 z M 29 38 L 29 39 L 30 39 L 30 38 L 29 38 z M 31 38 L 31 39 L 32 39 L 32 38 L 31 38 z M 33 38 L 33 39 L 34 39 L 34 38 L 33 38 z M 35 38 L 35 39 L 36 39 L 36 38 L 35 38 z M 40 38 L 40 39 L 41 39 L 41 38 L 40 38 z M 38 40 L 38 41 L 39 41 L 39 40 L 38 40 z " transform="matrix(1 0 0 1 384.57143 499.798)"/>
 </g>
</svg>
